static/home/trending-icon.svg

<svg xmlns="http://www.w3.org/2000/svg" xmlns:xlink="http://www.w3.org/1999/xlink" width="353" zoomAndPan="magnify" viewBox="0 0 264.75 374.999991" height="500" preserveAspectRatio="xMidYMid meet" version="1.0"><defs><clipPath id="8aa9f0aaa4"><path d="M 1 1 L 263 1 L 263 374.820312 L 1 374.820312 Z M 1 1 " clip-rule="nonzero"/></clipPath><clipPath id="965244e102"><path d="M 12 35 L 252 35 L 252 374.820312 L 12 374.820312 Z M 12 35 " clip-rule="nonzero"/></clipPath><clipPath id="2f5a759985"><path d="M 49 84 L 233 84 L 233 374.820312 L 49 374.820312 Z M 49 84 " clip-rule="nonzero"/></clipPath><clipPath id="5289e4f0f1"><path d="M 73 269 L 212 269 L 212 374.820312 L 73 374.820312 Z M 73 269 " clip-rule="nonzero"/></clipPath></defs><g clip-path="url(#8aa9f0aaa4)"><path fill="#eb451d" d="M 259.941406 216.542969 C 232.089844 252.152344 219.679688 269.378906 212.304688 255.8125 C 192.632812 219.609375 285.042969 178.785156 183.289062 93.546875 C 199.230469 148.675781 182.894531 189.070312 180.644531 188.152344 C 176.382812 186.414062 188.28125 56.542969 100.019531 1.082031 C 99.925781 15.925781 113.574219 94.414062 80.625 75.378906 C 23.820312 98.902344 78.1875 250.640625 78.1875 250.640625 C 78.1875 250.640625 18.476562 240.84375 35.292969 169.257812 C 28.121094 175.554688 19.933594 181.09375 12.246094 198.019531 C -6.46875 239.226562 -1.070312 287.757812 26.53125 323.617188 C 47.152344 350.410156 77.867188 369.03125 112.972656 373.847656 C 124.75 375.421875 141.046875 374.589844 148.980469 373.847656 C 213.175781 365.039062 262.679688 310.070312 262.679688 243.394531 C 262.679688 234.191406 261.734375 225.210938 259.941406 216.542969 " fill-opacity="1" fill-rule="nonzero"/></g><path fill="#eb451d" d="M 80.484375 10.859375 C 80.484375 10.859375 61.304688 12.023438 65.855469 25.226562 C 70.410156 38.433594 83.628906 44.730469 73.59375 54.378906 C 90.921875 48.488281 88.632812 39.132812 84.746094 35.332031 C 77.113281 27.855469 71.195312 12.917969 80.484375 10.859375 " fill-opacity="1" fill-rule="nonzero"/><path fill="#eb451d" d="M 27.53125 94.648438 C 27.53125 94.648438 8.347656 95.8125 12.902344 109.019531 C 17.453125 122.222656 30.671875 128.519531 20.636719 138.167969 C 37.964844 132.285156 35.671875 122.921875 31.789062 119.125 C 24.152344 111.648438 18.242188 96.710938 27.53125 94.648438 " fill-opacity="1" fill-rule="nonzero"/><path fill="#eb451d" d="M 207.351562 51.132812 C 207.351562 51.132812 188.167969 52.292969 192.722656 65.5 C 197.273438 78.703125 210.496094 85.003906 200.460938 94.648438 C 217.785156 88.765625 215.492188 79.40625 211.613281 75.605469 C 203.976562 68.128906 198.0625 53.191406 207.351562 51.132812 " fill-opacity="1" fill-rule="nonzero"/><g clip-path="url(#965244e102)"><path fill="#ff8615" d="M 129.148438 374.742188 C 123.347656 374.742188 118.398438 374.476562 114.4375 373.945312 C 82.917969 369.621094 54.792969 353.273438 35.277344 327.921875 C 10.316406 295.5 5.21875 252.167969 21.871094 214.59375 C 23.21875 225.550781 26.753906 235.355469 32.46875 243.925781 C 48.367188 267.757812 75.265625 272.414062 76.402344 272.601562 L 94.914062 275.640625 L 88.582031 257.964844 C 88.449219 257.59375 75.191406 220.296875 68.96875 180.890625 C 64.921875 155.269531 61.441406 112.011719 80.902344 98.769531 C 83.917969 99.890625 86.824219 100.441406 89.675781 100.441406 C 89.679688 100.441406 89.679688 100.441406 89.679688 100.441406 C 95.464844 100.4375 100.613281 98.148438 104.566406 93.824219 C 114.445312 83.011719 114.703125 60.828125 112.882812 35.820312 C 162.53125 81.589844 166.574219 157.09375 168.203125 187.449219 C 168.902344 200.515625 169.222656 206.480469 176.476562 209.4375 L 178.480469 210.253906 L 180.730469 210.269531 C 182.890625 210.269531 187.003906 209.613281 190.28125 205.25 C 195.054688 198.890625 203.800781 172.878906 200.5625 136.789062 C 212.574219 150.921875 219.195312 164.335938 220.652344 177.351562 C 222.527344 194.121094 215.640625 208.441406 208.976562 222.289062 C 201.253906 238.347656 193.265625 254.949219 202.609375 272.144531 C 207.523438 281.1875 214.582031 282.539062 218.351562 282.539062 C 218.351562 282.539062 218.355469 282.539062 218.355469 282.539062 C 228.449219 282.539062 237.089844 274.136719 251.625 256.054688 C 251.242188 284.828125 240.621094 312.476562 221.617188 334.066406 C 202.492188 355.796875 176.253906 369.941406 147.714844 373.917969 C 145.304688 374.136719 137.882812 374.742188 129.148438 374.742188 " fill-opacity="1" fill-rule="nonzero"/></g><g clip-path="url(#2f5a759985)"><path fill="#fbde57" d="M 129.148438 374.742188 C 123.136719 374.742188 119.421875 374.414062 117.363281 374.140625 C 91.6875 370.617188 43.519531 308.855469 50.722656 283.703125 C 82.152344 310.449219 126.292969 299.296875 126.292969 299.296875 C 126.292969 299.296875 46.167969 177.238281 131.914062 84.765625 C 131.914062 129.246094 115.265625 148.035156 150.152344 224.019531 C 159.136719 243.59375 184.140625 233.285156 184.140625 233.285156 C 181.027344 242.273438 168.0625 300.339844 232.734375 294.59375 C 221.96875 338.585938 168.296875 370.710938 145.191406 374.054688 C 142.773438 374.261719 136.445312 374.742188 129.148438 374.742188 " fill-opacity="1" fill-rule="nonzero"/></g><g clip-path="url(#5289e4f0f1)"><path fill="#ffefb0" d="M 211.390625 323.09375 C 199.921875 329.035156 193.46875 338.847656 174.917969 337.601562 C 157.800781 336.453125 157.070312 269.628906 157.070312 269.628906 C 155.800781 270.234375 141.828125 316.5625 116.210938 326.300781 C 99.453125 332.667969 73.867188 326.984375 73.90625 327.074219 C 82.589844 345.800781 111.039062 369.011719 119.171875 374.445312 C 129.945312 375.148438 142.367188 374.46875 148.980469 373.847656 C 149.695312 373.75 150.40625 373.648438 151.113281 373.539062 C 162.183594 369.347656 197.582031 344.363281 211.390625 323.09375 " fill-opacity="1" fill-rule="nonzero"/></g></svg>

<svg xmlns="http://www.w3.org/2000/svg" width="353" viewBox="0 0 264.75 375" height="500" version="1.0"><defs><clipPath id="a"><path d="M1 1h262v373.82H1zm0 0"/></clipPath><clipPath id="b"><path d="M12 35h240v339.82H12zm0 0"/></clipPath><clipPath id="c"><path d="M49 84h184v290.82H49zm0 0"/></clipPath><clipPath id="d"><path d="M73 269h139v105.82H73zm0 0"/></clipPath></defs><g clip-path="url(#a)"><path fill="#eb451d" d="M259.941 216.543c-27.851 35.61-40.261 52.836-47.636 39.27-19.672-36.204 72.738-77.028-29.016-162.266 15.941 55.129-.394 95.523-2.644 94.605-4.262-1.738 7.636-131.609-80.625-187.07-.094 14.844 13.554 93.332-19.395 74.297C23.82 98.902 78.187 250.64 78.187 250.64s-59.71-9.797-42.894-81.383c-7.172 6.297-15.36 11.836-23.047 28.762-18.715 41.207-13.316 89.738 14.285 125.597 20.621 26.793 51.336 45.414 86.442 50.23 11.777 1.575 28.074.743 36.007 0 64.196-8.808 113.7-63.777 113.7-130.452 0-9.204-.946-18.184-2.739-26.852"/></g><path fill="#eb451d" d="M80.484 10.86s-19.18 1.163-14.629 14.367C70.41 38.434 83.63 44.73 73.594 54.379c17.328-5.89 15.039-15.246 11.152-19.047-7.633-7.477-13.55-22.414-4.262-24.473M27.531 94.648S8.348 95.813 12.902 109.02c4.551 13.203 17.77 19.5 7.735 29.148 17.328-5.883 15.035-15.246 11.152-19.043-7.637-7.477-13.547-22.414-4.258-24.477M207.352 51.133s-19.184 1.16-14.63 14.367c4.551 13.203 17.774 19.504 7.739 29.148 17.324-5.882 15.031-15.242 11.152-19.043-7.636-7.476-13.55-22.414-4.261-24.472"/><g clip-path="url(#b)"><path fill="#ff8615" d="M129.148 374.742c-5.8 0-10.75-.265-14.71-.797-31.52-4.324-59.645-20.672-79.16-46.023C10.315 295.5 5.217 252.168 21.87 214.594c1.348 10.957 4.883 20.761 10.598 29.332 15.898 23.832 42.797 28.488 43.933 28.676l18.512 3.039-6.332-17.676c-.133-.371-13.39-37.668-19.613-77.074-4.047-25.621-7.528-68.88 11.933-82.121 3.016 1.12 5.922 1.671 8.774 1.671h.004c5.785-.004 10.933-2.293 14.886-6.617 9.88-10.812 10.137-32.996 8.317-58.004 49.648 45.77 53.691 121.274 55.32 151.63.7 13.066 1.02 19.03 8.274 21.988l2.003.816 2.25.016c2.16 0 6.274-.657 9.551-5.02 4.774-6.36 13.52-32.371 10.281-68.46 12.012 14.132 18.633 27.546 20.09 40.562 1.875 16.77-5.011 31.09-11.675 44.937-7.723 16.059-15.711 32.66-6.368 49.856 4.914 9.043 11.973 10.394 15.743 10.394h.003c10.094 0 18.735-8.402 33.27-26.484-.383 28.773-11.004 56.422-30.008 78.011-19.125 21.73-45.363 35.875-73.902 39.852-2.41.219-9.832.824-18.567.824"/></g><g clip-path="url(#c)"><path fill="#fbde57" d="M129.148 374.742c-6.011 0-9.726-.328-11.785-.601-25.675-3.524-73.843-65.286-66.64-90.438 31.43 26.746 75.57 15.594 75.57 15.594s-80.125-122.059 5.621-214.531c0 44.48-16.648 63.27 18.238 139.254 8.985 19.574 33.989 9.265 33.989 9.265-3.114 8.988-16.078 67.055 48.593 61.309-10.765 43.992-64.437 76.117-87.543 79.46-2.418.208-8.746.688-16.043.688"/></g><g clip-path="url(#d)"><path fill="#ffefb0" d="M211.39 323.094c-11.468 5.941-17.921 15.754-36.472 14.508-17.117-1.149-17.848-67.973-17.848-67.973-1.27.605-15.242 46.933-40.86 56.672-16.757 6.367-42.343.683-42.304.773 8.684 18.727 37.133 41.938 45.266 47.371 10.773.703 23.195.024 29.808-.597.715-.098 1.426-.2 2.133-.309 11.07-4.191 46.469-29.176 60.278-50.445"/></g></svg>
